src/Icon/iconSvgs/bookmarkon.svg

<svg width="32" height="32" viewBox="0 0 32 32" fill="none" xmlns="http://www.w3.org/2000/svg">
<g clip-path="url(#clip0)">
<path d="M26.8472 1.30113V31.218C26.8472 31.8407 26.1537 32.2128 25.6348 31.8685L16.2181 25.6192C16.0859 25.5315 15.9141 25.5315 15.7819 25.6192L6.36518 31.8685C5.84624 32.2129 5.15281 31.8408 5.15281 31.218V1.30113C5.15281 0.582563 5.73537 0 6.45393 0H25.5461C26.2646 0 26.8472 0.582563 26.8472 1.30113Z" fill="#828282"/>
<path d="M16.7 6.81438L18.2345 9.92356C18.3482 10.154 18.568 10.3137 18.8224 10.3506L22.2535 10.8492C22.8939 10.9422 23.1495 11.7291 22.6862 12.1807L20.2034 14.6009C20.0194 14.7803 19.9354 15.0387 19.9789 15.2919L20.565 18.7093C20.6744 19.347 20.005 19.8334 19.4322 19.5323L16.3632 17.9189C16.1358 17.7993 15.8641 17.7993 15.6367 17.9189L12.5677 19.5323C11.9949 19.8334 11.3255 19.347 11.4349 18.7093L12.021 15.2919C12.0645 15.0387 11.9805 14.7803 11.7965 14.6009L9.31367 12.1807C8.8503 11.7291 9.10599 10.9422 9.74636 10.8492L13.1775 10.3506C13.4318 10.3137 13.6516 10.154 13.7654 9.92356L15.2999 6.81438C15.5863 6.23413 16.4137 6.23413 16.7 6.81438Z" fill="#FFD15B"/>
<path d="M25.5461 0H23.0657C23.7843 0 24.3669 0.582563 24.3669 1.30113V31.027L25.6348 31.8684C26.1537 32.2128 26.8472 31.8407 26.8472 31.2179V1.30113C26.8472 0.582563 26.2646 0 25.5461 0V0Z" fill="#4F4F4F"/>
</g>
<defs>
<clipPath id="clip0">
<rect width="32" height="32" fill="white"/>
</clipPath>
</defs>
</svg>

<svg width="32" height="32" fill="none" xmlns="http://www.w3.org/2000/svg"><g clip-path="url(#a)"><path d="M26.847 1.301v29.917a.78.78 0 0 1-1.212.65l-9.417-6.249a.394.394 0 0 0-.436 0l-9.417 6.25a.78.78 0 0 1-1.212-.651V1.301C5.153.583 5.735 0 6.453 0h19.093c.719 0 1.301.583 1.301 1.301z" fill="#828282"/><path d="m16.7 6.814 1.535 3.11a.78.78 0 0 0 .587.427l3.431.498a.78.78 0 0 1 .433 1.332l-2.483 2.42a.78.78 0 0 0-.224.69l.586 3.418a.78.78 0 0 1-1.133.823l-3.069-1.613a.78.78 0 0 0-.726 0l-3.07 1.613a.78.78 0 0 1-1.132-.823l.586-3.417a.78.78 0 0 0-.225-.691l-2.482-2.42a.78.78 0 0 1 .432-1.332l3.431-.498a.78.78 0 0 0 .588-.427l1.535-3.11a.78.78 0 0 1 1.4 0z" fill="#FFD15B"/><path d="M25.546 0h-2.48c.718 0 1.3.583 1.3 1.301v29.726l1.269.841a.78.78 0 0 0 1.212-.65V1.3c0-.718-.582-1.301-1.3-1.301z" fill="#4F4F4F"/></g><defs><clipPath id="a"><path fill="#fff" d="M0 0h32v32H0z"/></clipPath></defs></svg>
